src/resources/fundingLogos/zimpler.svg

<svg width="56px" height="32px" viewBox="0 0 56 32" version="1.1" xmlns="http://www.w3.org/2000/svg" xmlns:xlink="http://www.w3.org/1999/xlink">
    <defs>
        <polygon id="path-1" points="0 0.0222505208 55.8575111 0.0222505208 55.8575111 14.5650422 0 14.5650422"></polygon>
        <polygon id="path-3" points="0.0165790741 0.0480338542 2.52569286 0.0480338542 2.52569286 2.46382682 0.0165790741 2.46382682"></polygon>
    </defs>
    <g stroke="none" stroke-width="1" fill="none" fill-rule="evenodd">
        <g transform="translate(-100.000000, -159.000000)">
            <g transform="translate(100.000000, 159.000000)">
                <mask id="mask-2" fill="white">
                    <use xlink:href="#path-1"></use>
                </mask>
                <path d="M44.3633867,6.59731042 C44.5817867,5.52662031 45.4547644,4.60777917 46.4325867,4.60777917 C46.9829422,4.60777917 47.3817867,5.01498229 47.2392978,5.46990937 L44.2115644,7.54466198 C44.2684978,7.01412031 44.3633867,6.59731042 44.3633867,6.59731042 Z M30.3157867,9.1269901 L30.7905422,6.40796406 C30.9992978,5.76369062 31.75872,4.90156042 32.5464533,4.85414635 C32.8500978,4.83524271 33.2109867,4.84453958 33.5525867,5.11941719 C33.8468978,5.45100573 33.99872,5.9437401 33.99872,6.55950312 C33.99872,8.50162031 33.04952,9.84687812 31.71112,9.84687812 C31.0468978,9.83758125 30.5248533,9.49638594 30.3157867,9.1269901 Z M55.8576978,2.84540156 C54.71872,2.78869062 53.2284978,4.1813625 53.2284978,4.1813625 L52.7537422,2.99725052 L51.4536089,2.99725052 L50.8270311,6.54059948 C50.7797422,6.78665677 50.6562311,7.00482344 50.4568089,7.1563625 L48.7388533,8.50162031 C48.7388533,8.50162031 48.0366756,9.04176875 47.0588533,9.66682865 C46.6130311,9.88499531 46.2521422,9.97951354 45.88192,9.97951354 C45.0941867,9.97951354 44.6007644,9.67643542 44.3730311,9.15519062 C44.3347644,9.0606724 44.3064533,8.9562375 44.2778311,8.86171927 L48.68192,5.88671927 C49.3178311,5.44139896 49.3084978,4.83524271 49.2229422,4.53185469 C48.9382756,3.58450312 48.0839644,2.87391198 46.6699644,2.87391198 C44.03112,2.87391198 42.2182756,5.11941719 42.2182756,8.31227396 C42.2182756,8.53013073 42.22792,8.73838073 42.2562311,8.93733385 L41.0033867,9.8186776 C40.7566756,9.97021667 40.4054311,10.1028521 40.1870311,10.1028521 C39.8074756,10.1028521 39.6460089,9.80907083 39.76952,9.17440417 L41.40192,0.0411541667 L39.3613422,0.0222505208 L38.5449867,4.56997188 C38.5070311,4.75931823 38.4217867,4.93936771 38.2889422,5.0813 L36.0392978,7.44983385 C36.0962311,7.06153437 36.1248533,6.64472448 36.1248533,6.20901094 C36.1248533,4.2854875 35.2325867,2.8646151 33.7330311,2.8646151 C32.2807644,2.8646151 31.19872,4.08653437 31.19872,4.08653437 L30.6290756,2.99725052 L29.34792,2.99725052 L28.6454311,7.00482344 C28.6168089,7.18456302 28.5408978,7.34570885 28.4176978,7.47834427 L27.10792,9.02255521 C26.7470311,9.41116458 26.3674756,9.89429219 26.1776978,9.90389896 C25.8357867,9.9606099 25.6839644,9.83758125 25.7978311,9.20260469 L26.3198756,6.30352917 C26.7280533,4.01091979 26.0258756,2.85500833 24.0515644,2.85500833 C22.8746311,2.85500833 21.4889422,4.17206563 21.4889422,4.17206563 C21.1946311,3.30962552 20.4731644,2.85500833 19.3817867,2.85500833 C18.1858756,2.85500833 16.8947644,4.24768021 16.8947644,4.24768021 L16.3633867,3.0065474 L15.0629422,3.0065474 L14.39872,6.79626354 C14.3700978,6.97631302 14.2941867,7.13745885 14.1709867,7.27009427 L12.6807644,9.03216198 C12.3198756,9.42077135 11.94032,9.90389896 11.7505422,9.91319583 C11.4089422,9.97021667 11.2568089,9.84687812 11.3709867,9.21221146 L12.50032,3.0065474 L10.4407644,3.0065474 L10.1084978,4.83524271 C10.0608978,5.07200312 9.95667556,5.29946667 9.79520889,5.47920625 L6.78645333,8.94694062 C6.00805333,9.78056042 5.03054222,9.90389896 4.83112,9.91319583 L2.70498667,9.91319583 L7.53623111,4.4562401 L7.78294222,2.97803698 L1.57565333,2.97803698 L1.28134222,4.63628958 L4.88805333,4.63628958 L0.22792,10.0932453 L-0.000124444444,11.6374562 C-0.000124444444,11.6374562 4.36600889,11.6566698 4.44192,11.6374562 C5.72338667,11.6374562 6.86236444,10.5100552 7.31783111,10.0458312 L9.64338667,7.30790156 L9.22587556,9.61011771 C8.95987556,11.1069146 9.53885333,11.8175057 10.7730311,11.7893052 C11.5321422,11.7700917 12.0541867,11.2680604 12.5762311,10.7471255 L13.9808978,9.10808646 L13.5157867,11.751188 L15.5756533,11.751188 L16.4772533,6.5688 C16.59112,5.92452656 17.4168089,4.83524271 18.2807644,4.83524271 C19.1920089,4.83524271 19.6284978,5.28025312 19.4197422,6.50248229 L18.4988533,11.7418911 L20.5397422,11.7418911 L21.5268978,6.17089375 C21.5838311,5.80149792 22.2480533,4.75931823 23.1689422,4.75931823 C24.1274756,4.75931823 24.4407644,5.28025312 24.2320089,6.50248229 L23.6623644,9.60051094 C23.3966756,11.0976177 23.9756533,11.8082089 25.20952,11.7796984 C25.9689422,11.7607948 26.4909867,11.2587635 27.0130311,10.7375187 L28.22792,9.31633646 L27.8007644,11.751188 L27.3070311,14.5650422 L29.3668978,14.5650422 L30.03112,10.7375187 C30.3157867,11.0976177 30.7146311,11.391399 31.2080533,11.542938 C31.32192,11.5807453 31.4357867,11.6092557 31.5592978,11.6281594 C32.8880533,11.6944771 34.0746311,11.0502036 35.1280533,9.95131302 L35.1376978,9.94170625 L38.1274756,6.85297448 L37.6433867,9.55340677 C37.3776978,11.0502036 37.9470311,11.7322844 39.1905422,11.7418911 C39.9972533,11.7418911 40.7470311,11.3439849 41.5347644,10.8134432 L42.5788533,10.0647349 C42.5978311,10.1028521 42.6168089,10.1502661 42.6357867,10.1880734 C43.1105422,11.1069146 43.9838311,11.7133807 45.2746311,11.7229875 L45.2839644,11.7229875 C46.6413422,11.7229875 47.9700978,10.4437375 48.7388533,9.90389896 C48.9382756,9.76165677 49.67872,9.1647974 50.4757867,8.52052396 L49.9064533,11.7322844 L51.9660089,11.7322844 L52.86792,6.54989635 C52.9817867,5.90562292 53.8074756,4.81602917 54.67112,4.81602917 C55.0033867,4.81602917 55.2690756,4.87305 55.4684978,5.00568542 L55.8576978,2.84540156 Z" id="Fill-4" fill="#00A599" mask="url(#mask-2)"></path>
                <g mask="url(#mask-2)">
                    <g transform="translate(10.577778, -0.309896)">
                        <mask id="mask-4" fill="white">
                            <use xlink:href="#path-3"></use>
                        </mask>
                        <g id="Clip-2" stroke="none" fill="none"></g>
                        <path d="M1.07781333,2.46382682 C1.76132444,2.46382682 2.40656889,1.92367839 2.51110222,1.2605013 C2.61532444,0.597324219 2.15021333,0.0574856771 1.46701333,0.0478789062 C0.783502222,0.0478789062 0.138257778,0.588027344 0.0337244444,1.25120443 C-0.0801422222,1.92367839 0.384968889,2.46382682 1.07781333,2.46382682" id="Fill-1" stroke="none" fill="#00A599" fill-rule="evenodd" mask="url(#mask-4)"></path>
                    </g>
                </g>
            </g>
        </g>
    </g>
</svg>

<?xml version="1.0" encoding="UTF-8"?>
<svg width="127" height="32" viewBox="0 0 127 32" version="1.1" preserveAspectRatio="xMinYMin meet" xmlns="http://www.w3.org/2000/svg">
  <g transform="matrix(2.2546708,0,0,2.0580615,0.70028058,1.3242473)" fill="#00A599">
    <path d="m 44.363387,6.5973104 c 0.2184,-1.0706901 1.091377,-1.9895312 2.0692,-1.9895312 0.550355,0 0.9492,0.4072031 0.806711,0.8621302 L 44.211564,7.544662 c 0.05693,-0.5305417 0.151823,-0.9473516 0.151823,-0.9473516 z m -14.0476,2.5296797 0.474755,-2.719026 c 0.208756,-0.6442735 0.968178,-1.5064037 1.755911,-1.5538178 0.303645,-0.018904 0.664534,-0.00961 1.006134,0.2652709 0.294311,0.3315885 0.446133,0.8243229 0.446133,1.4400859 0,1.9421172 -0.9492,3.287375 -2.2876,3.287375 -0.664222,-0.0093 -1.186267,-0.3504922 -1.395333,-0.719888 z M 55.857698,2.8454016 c -1.138978,-0.056711 -2.6292,1.3359609 -2.6292,1.3359609 l -0.474756,-1.184112 h -1.300133 l -0.626578,3.543349 c -0.04729,0.2460573 -0.1708,0.4642239 -0.370222,0.615763 l -1.717956,1.3452578 c 0,0 -0.702177,0.5401484 -1.68,1.1652083 -0.445822,0.2181667 -0.806711,0.3126849 -1.176933,0.3126849 -0.787733,0 -1.281156,-0.3030781 -1.508889,-0.8243229 -0.03827,-0.094518 -0.06658,-0.1989531 -0.0952,-0.2934713 l 4.404089,-2.975 C 49.317831,5.441399 49.308498,4.8352427 49.222942,4.5318547 48.938276,3.5845031 48.083964,2.873912 46.669964,2.873912 c -2.638844,0 -4.451688,2.2455052 -4.451688,5.438362 0,0.2178567 0.0096,0.4261067 0.03795,0.6250599 l -1.252844,0.8813437 c -0.246711,0.1515391 -0.597956,0.2841744 -0.816356,0.2841744 -0.379555,0 -0.541022,-0.2937812 -0.417511,-0.9284478 L 41.40192,0.04115417 39.361342,0.02225052 38.544987,4.5699719 c -0.03796,0.1893463 -0.1232,0.3693958 -0.256045,0.5113281 l -2.249644,2.3685338 c 0.05693,-0.3882994 0.08555,-0.8051093 0.08555,-1.2408229 0,-1.9235234 -0.892266,-3.3443958 -2.391822,-3.3443958 -1.452267,0 -2.534311,1.2219193 -2.534311,1.2219193 L 30.629076,2.9972505 H 29.34792 L 28.645431,7.0048234 C 28.616809,7.184563 28.540898,7.3457088 28.417698,7.4783443 L 27.10792,9.0225552 C 26.747031,9.4111646 26.367476,9.8942922 26.177698,9.903899 25.835787,9.96061 25.683964,9.837581 25.797831,9.2026047 l 0.522045,-2.8990755 c 0.408177,-2.2926094 -0.294,-3.4485209 -2.268312,-3.4485209 -1.176933,0 -2.562622,1.3170573 -2.562622,1.3170573 -0.294311,-0.8624401 -1.015778,-1.3170573 -2.107155,-1.3170573 -1.195911,0 -2.487023,1.3926719 -2.487023,1.3926719 L 16.363387,3.0065474 H 15.062942 L 14.39872,6.7962635 C 14.370098,6.976313 14.294187,7.1374588 14.170987,7.2700943 L 12.680764,9.032162 c -0.360888,0.3886094 -0.740444,0.871737 -0.930222,0.8810338 -0.3416,0.057021 -0.493733,-0.066318 -0.379555,-0.7009843 L 12.50032,3.0065474 h -2.059556 l -0.332266,1.8286953 c -0.0476,0.2367604 -0.1518224,0.464224 -0.3132891,0.6439635 L 6.7864533,8.9469406 C 6.0080533,9.7805604 5.0305422,9.903899 4.83112,9.9131958 H 2.7049867 L 7.5362311,4.4562401 7.7829422,2.978037 H 1.5756533 L 1.2813422,4.6362896 H 4.8880533 L 0.22792,10.093245 -1.2444444e-4,11.637456 c 0,0 4.36613334444,0.01921 4.44204444444,0 1.2814667,0 2.4204444,-1.127401 2.8759111,-1.591625 L 9.6433867,7.3079016 9.2258756,9.6101177 c -0.266,1.4967973 0.3129777,2.2073883 1.5471554,2.1791873 0.759111,-0.01921 1.281156,-0.521245 1.8032,-1.04218 l 1.404667,-1.6390385 -0.465111,2.6431015 h 2.059866 l 0.9016,-5.182388 c 0.113867,-0.6442734 0.939556,-1.7335573 1.803511,-1.7335573 0.911245,0 1.347734,0.4450104 1.138978,1.6672396 l -0.920889,5.2394087 h 2.040889 l 0.987156,-5.5709973 c 0.05693,-0.3693958 0.721155,-1.4115755 1.642044,-1.4115755 0.958534,0 1.271822,0.5209349 1.063067,1.7431641 l -0.569645,3.0980286 c -0.265688,1.4971071 0.313289,2.2076981 1.547156,2.1791871 0.759422,-0.0189 1.281467,-0.520934 1.803511,-1.042179 l 1.214889,-1.4211825 -0.427156,2.4348515 -0.493733,2.813854 h 2.059867 l 0.664222,-3.827523 c 0.284667,0.360099 0.683511,0.65388 1.176933,0.805419 0.113867,0.03781 0.227734,0.06632 0.351245,0.08522 1.328755,0.06632 2.515333,-0.577955 3.568755,-1.676846 l 0.0096,-0.00961 2.989778,-3.0887317 -0.484089,2.7004323 c -0.265689,1.4967974 0.303644,2.1788774 1.547155,2.1884844 0.806711,0 1.556489,-0.397906 2.344222,-0.928448 l 1.044089,-0.748708 c 0.01898,0.03812 0.03796,0.08553 0.05693,0.123338 0.474755,0.918842 1.348044,1.525308 2.638844,1.534915 h 0.0093 c 1.357378,0 2.686134,-1.279251 3.454889,-1.8190892 0.199423,-0.1422422 0.939867,-0.7391016 1.736934,-1.383375 L 49.906371,11.73228 h 2.059556 L 52.86792,6.5498963 c 0.113867,-0.6442734 0.939556,-1.7338671 1.8032,-1.7338671 0.332267,0 0.597956,0.057021 0.797378,0.1896562 z"/>
    <g transform="translate(10.577778,-0.309896)">
      <path d="m 1.0778133,2.4638268 c 0.6835111,0 1.3287556,-0.5401484 1.4332889,-1.2033255 C 2.6153244,0.59732422 2.1502133,0.05748568 1.4670133,0.04787891 c -0.68351108,0 -1.32875552,0.54014843 -1.43328886,1.20332549 -0.11386666,0.672474 0.35124445,1.2126224 1.04408886,1.2126224" />
    </g>
  </g>
</svg>
